app/images/icons/leaf.svg

<?xml version="1.0" encoding="UTF-8" standalone="no"?>
<svg width="70px" height="67px" viewBox="0 0 70 67" version="1.1" xmlns="http://www.w3.org/2000/svg" xmlns:xlink="http://www.w3.org/1999/xlink">
    <!-- Generator: Sketch 39.1 (31720) - http://www.bohemiancoding.com/sketch -->
    <title>leaf</title>
    <desc>Created with Sketch.</desc>
    <defs></defs>
    <g id="Desktop" stroke="none" stroke-width="1" fill="none" fill-rule="evenodd">
        <g id="1-1-Frontend-Test-Project-Desktop" transform="translate(-674.000000, -1320.000000)" fill="#CECED2">
            <g id="ABOUT-US" transform="translate(149.000000, 1015.000000)">
                <g id="02" transform="translate(460.000000, 305.000000)">
                    <g id="Leaves" transform="translate(65.000000, 0.000000)">
                        <path d="M27.811,65.864 L27.469,65.909 L27.469,65.909 L26.889,65.99 C16.274,67.482 6.444,63.155 2.852,54.313 C2.055,52.352 1.5,50.159 1.15,47.772 C0.575,43.859 0.578,39.751 0.921,35.891 C1.008,34.912 1.097,34.18 1.16,33.756 L1.633,30.564 L4.811,31.121 C5.604,31.26 6.918,31.553 8.585,32.031 C11.353,32.825 14.124,33.868 16.735,35.2 C19.379,36.549 21.709,38.12 23.641,39.947 L23.641,39.947 C23.761,38.834 23.924,37.728 24.133,36.632 C24.922,32.495 26.352,28.671 28.5,25.244 C31.894,19.833 36.929,15.085 43.158,10.935 C47.237,8.217 51.589,5.914 55.939,4.009 C57.463,3.342 58.88,2.771 60.156,2.295 C60.934,2.006 61.501,1.809 61.823,1.705 L64.893,0.711 L65.805,3.806 C65.923,4.204 66.119,4.919 66.367,5.909 C66.777,7.542 67.185,9.365 67.566,11.337 C68.807,17.757 69.479,24.234 69.279,30.334 C69.161,33.939 68.736,37.302 67.963,40.38 C64.002,56.138 48.288,65.864 29.642,65.864 L27.811,65.864 L27.811,65.864 Z M23.721,59.975 C24.035,57.083 23.94,54.022 23.21,51.211 C22.66,49.096 21.777,47.271 20.527,45.786 C18.927,43.886 16.657,42.217 13.879,40.799 C11.741,39.709 9.431,38.829 7.113,38.149 L7.055,38.193 C6.892,41.082 6.96,44.071 7.369,46.859 C7.651,48.779 8.085,50.493 8.675,51.947 C10.832,57.256 16.714,60.268 23.72,59.976 L23.721,59.975 L23.721,59.975 Z M60.613,8.857 L60.614,8.86 C59.929,9.137 59.209,9.439 58.461,9.767 C54.425,11.534 50.391,13.669 46.643,16.166 C41.097,19.861 36.689,24.017 33.826,28.584 C32.112,31.316 30.956,34.408 30.308,37.809 C29.163,43.814 29.641,50.356 31.148,56.694 C31.189,56.867 31.231,57.039 31.273,57.208 L31.272,57.21 L31.273,57.21 L31.273,57.21 L31.273,57.208 C32.195,54.61 33.346,51.707 34.744,48.562 C38.824,39.376 44.157,29.966 50.896,20.857 C51.671,19.811 53.147,19.59 54.193,20.364 C55.24,21.139 55.46,22.615 54.686,23.661 C48.164,32.476 42.999,41.59 39.052,50.475 C37.673,53.58 36.546,56.43 35.653,58.962 C35.625,59.04 35.598,59.118 35.571,59.196 L35.571,59.196 C48.79,57.457 59.089,49.899 61.867,38.848 C62.523,36.236 62.893,33.311 62.997,30.128 C63.179,24.557 62.553,18.525 61.395,12.529 C61.144,11.231 60.881,10.003 60.614,8.86 L60.617,8.859 L60.613,8.857 L60.613,8.857 Z" id="leaf"></path>
                    </g>
                </g>
            </g>
        </g>
    </g>
</svg>

<svg xmlns="http://www.w3.org/2000/svg" width="70" height="67"><title>leaf</title><desc>Created with Sketch.</desc><g fill="none"><g fill="#CECED2"><g><g><g><path d="M27.8 65.86l-.33.05-.58.1C16.26 67.47 6.43 63.15 2.84 54.3c-.8-1.95-1.35-4.14-1.7-6.53-.57-3.9-.57-8.02-.23-11.88.1-1 .18-1.72.24-2.14l.47-3.2 3.18.56c.8.14 2.12.43 3.8.9 2.75.8 5.52 1.85 8.13 3.18 2.65 1.35 4.98 2.92 6.9 4.75.13-1.12.3-2.22.5-3.32.8-4.14 2.22-7.96 4.37-11.4 3.4-5.4 8.43-10.14 14.66-14.3 4.08-2.7 8.43-5.02 12.78-6.92 1.52-.66 2.94-1.23 4.22-1.7.77-.3 1.34-.5 1.66-.6l3.07-1 .9 3.1c.12.4.32 1.12.57 2.1.4 1.64.8 3.46 1.2 5.44 1.24 6.42 1.9 12.9 1.7 19-.1 3.6-.53 6.96-1.3 10.04C64 56.14 48.28 65.86 29.63 65.86H27.8zm-4.08-5.88c.32-2.9.22-5.96-.5-8.77-.56-2.1-1.44-3.93-2.7-5.4-1.6-1.9-3.86-3.58-6.64-5-2.14-1.1-4.45-1.97-6.77-2.65l-.04.04c-.17 2.88-.1 5.87.3 8.66.3 1.92.73 3.63 1.32 5.1 2.15 5.3 8.03 8.3 15.04 8.02zm36.9-51.12c-.7.28-1.4.58-2.16.9-4.04 1.77-8.07 3.9-11.82 6.4-5.54 3.7-9.95 7.86-12.8 12.42-1.73 2.74-2.88 5.83-3.53 9.23-1.14 6-.66 12.56.85 18.9.04.17.08.34.12.5.93-2.6 2.08-5.5 3.47-8.64 4.08-9.18 9.42-18.6 16.16-27.7.77-1.05 2.25-1.27 3.3-.5 1.04.78 1.26 2.25.5 3.3C48.15 32.48 43 41.6 39.04 50.48c-1.38 3.1-2.5 5.95-3.4 8.48-.02.08-.05.16-.08.24 13.22-1.74 23.52-9.3 26.3-20.35.65-2.6 1.02-5.54 1.13-8.72.18-5.57-.45-11.6-1.6-17.6-.26-1.3-.52-2.53-.8-3.67h.02z"/></g></g></g></g></g></svg>
